dist/imgs/doc-icon.svg

<svg width="24" height="23" viewBox="0 0 24 23" fill="none" xmlns="http://www.w3.org/2000/svg">
<path d="M13.406 10.1057H19.5583C19.6019 10.1057 19.6436 10.123 19.6744 10.1538C19.7051 10.1845 19.7224 10.2263 19.7224 10.2698V18.5315C19.7224 19.2743 19.4273 19.9867 18.9021 20.5119C18.3768 21.0372 17.6644 21.3323 16.9216 21.3323H7.07788C6.33507 21.3323 5.62268 21.0372 5.09743 20.5119C4.57218 19.9867 4.2771 19.2743 4.2771 18.5315V4.46899C4.2771 3.72618 4.57218 3.01379 5.09743 2.48854C5.62268 1.96329 6.33507 1.66821 7.07788 1.66821H11.1208C11.1644 1.66821 11.2061 1.6855 11.2369 1.71627C11.2676 1.74703 11.2849 1.78876 11.2849 1.83228V7.98462C11.2849 8.54717 11.5084 9.08668 11.9062 9.48446C12.3039 9.88224 12.8435 10.1057 13.406 10.1057ZM8.48413 17.137H15.5154C15.705 17.137 15.8868 17.0616 16.0209 16.9276C16.1549 16.7935 16.2302 16.6117 16.2302 16.4221C16.2302 16.2325 16.1549 16.0507 16.0209 15.9166C15.8868 15.7826 15.705 15.7073 15.5154 15.7073H8.48413C8.29454 15.7073 8.11272 15.7826 7.97866 15.9166C7.8446 16.0507 7.76929 16.2325 7.76929 16.4221C7.76929 16.6117 7.8446 16.7935 7.97866 16.9276C8.11272 17.0616 8.29454 17.137 8.48413 17.137ZM8.48413 13.6213H15.5154C15.705 13.6213 15.8868 13.546 16.0209 13.412C16.1549 13.2779 16.2302 13.0961 16.2302 12.9065C16.2302 12.7169 16.1549 12.5351 16.0209 12.401C15.8868 12.267 15.705 12.1916 15.5154 12.1916H8.48413C8.29454 12.1916 8.11272 12.267 7.97866 12.401C7.8446 12.5351 7.76929 12.7169 7.76929 12.9065C7.76929 13.0961 7.8446 13.2779 7.97866 13.412C8.11272 13.546 8.29454 13.6213 8.48413 13.6213Z" fill="white" stroke="#4FD1C5" stroke-width="0.0234375"/>
<path d="M12.8444 2.22753L19.1641 8.54726L12.8444 2.22753ZM12.8444 2.22753C12.8443 2.22753 12.8443 2.22753 12.8443 2.22752M12.8444 2.22753L12.8443 2.22752M12.8443 2.22752C12.8337 2.21694 12.8202 2.20974 12.8054 2.20683C12.7907 2.20392 12.7754 2.20542 12.7615 2.21116C12.7477 2.2169 12.7358 2.22662 12.7274 2.23908C12.719 2.25155 12.7145 2.2662 12.7145 2.28121V7.98573C12.7145 8.1691 12.7873 8.34496 12.917 8.47462C13.0466 8.60429 13.2225 8.67713 13.4059 8.67713H19.1104C19.1254 8.67707 19.1401 8.67257 19.1525 8.66419C19.165 8.65582 19.1747 8.64395 19.1804 8.63007C19.1862 8.61619 19.1877 8.60092 19.1848 8.58619C19.1819 8.57147 19.1747 8.55793 19.1641 8.54728L12.8443 2.22752Z" fill="white" stroke="#4FD1C5" stroke-width="0.0234375"/>
</svg>

<svg width="24" height="23" fill="none" xmlns="http://www.w3.org/2000/svg"><path d="M13.406 10.106h6.152a.164.164 0 01.164.164v8.262a2.8 2.8 0 01-2.8 2.8H7.078a2.8 2.8 0 01-2.8-2.8V4.469a2.8 2.8 0 012.8-2.8h4.043a.164.164 0 01.164.163v6.153a2.121 2.121 0 002.121 2.12zm-4.922 7.031h7.031a.715.715 0 000-1.43h-7.03a.715.715 0 000 1.43zm0-3.516h7.031a.715.715 0 000-1.43h-7.03a.715.715 0 000 1.43z" fill="#fff" stroke="#4FD1C5" stroke-width=".023"/><path d="M12.844 2.228l6.32 6.32-6.32-6.32zm0 0s0 0 0 0m0 0h0m0 0a.076.076 0 00-.082-.017.077.077 0 00-.048.07v5.705a.691.691 0 00.692.691h5.704a.076.076 0 00.075-.09.076.076 0 00-.02-.04l-6.32-6.32z" fill="#fff" stroke="#4FD1C5" stroke-width=".023"/></svg>
